(
    var n = 8;
    {
        Mix.fill(n, { arg index;
            var freq;
            index.postln;
            freq = 440 + index;
            freq.postln;
            SinOsc.ar(freq , 0, 1 / n)
        })
    }.play;
)